icons/dark/java.svg

<svg width="16" height="16" viewBox="0 0 16 16" fill="none" xmlns="http://www.w3.org/2000/svg">
<path d="M11 4.05334C11 4.05334 6.44 5.19334 8.62667 7.70667C9.27333 8.44667 8.46 9.11334 8.46 9.11334C8.46 9.11334 10.0933 8.28 9.33333 7.21334C8.62667 6.23334 8.09333 5.74667 11 4.05334ZM8.02 4.85334C10.72 2.72 9.33333 1.33334 9.33333 1.33334C9.89333 3.53334 7.36 4.2 6.44667 5.57334C5.82 6.50667 6.75333 7.51334 8 8.66667C7.52667 7.53334 5.85333 6.56 8.02 4.85334ZM6.24667 11.6467C4.19333 12.22 7.5 13.4 10.1067 12.2867C9.85333 12.1867 9.60667 12.0667 9.37333 11.9267C8.46667 12.1333 7.53333 12.1733 6.61333 12.0467C5.74 11.94 6.24667 11.6467 6.24667 11.6467ZM9.79333 10.5267C8.62667 10.78 7.42 10.84 6.23333 10.7C5.36 10.6133 5.93333 10.1867 5.93333 10.1867C3.66667 10.94 7.18667 11.7867 10.3333 10.8667C10.14 10.7933 9.95333 10.6667 9.79333 10.5267ZM12.0733 12.7267C12.0733 12.7267 12.4533 13.04 11.6667 13.28C10.1467 13.7333 5.38 13.8733 4.06 13.3C3.58667 13.0933 4.48 12.8067 4.76 12.7467C4.91333 12.7067 5.06667 12.6933 5.22 12.6933C4.69333 12.3333 1.8 13.4267 3.76 13.7333C9.07333 14.6 13.4533 13.3333 12.0733 12.7267ZM10.2467 9.48667C10.44 9.36 10.6467 9.25334 10.86 9.16C10.86 9.16 9.85333 9.33334 8.84667 9.42667C7.78 9.53334 6.70667 9.54667 5.64 9.46667C4.07333 9.26 6.5 8.66667 6.5 8.66667C5.76667 8.66667 5.04667 8.84 4.39333 9.16667C3.02667 9.83334 7.79333 10.1333 10.2467 9.48667ZM10.8467 11.1C10.8333 11.1267 10.82 11.1467 10.7933 11.1667C14.1333 10.2933 12.9067 8.07334 11.3067 8.62667C11.22 8.66667 11.1467 8.72 11.1 8.79334C11.1933 8.76 11.2867 8.73334 11.3867 8.71334C12.1867 8.55334 13.3333 9.8 10.8467 11.1ZM10.9333 14.1733C8.92667 14.52 6.87333 14.5467 4.85333 14.2667C4.85333 14.2667 5.16 14.52 6.72667 14.62C9.12667 14.7733 12.8133 14.5333 12.9 13.4C12.92 13.4067 12.7467 13.8333 10.9333 14.1733Z" fill="#C5C5C5"/>
</svg>

<svg xmlns="http://www.w3.org/2000/svg" width="16" height="16" fill="none" xmlns:v="https://vecta.io/nano"><path d="M11 4.053s-4.56 1.14-2.373 3.653c.647.74-.167 1.407-.167 1.407s1.633-.833.873-1.9c-.707-.98-1.24-1.467 1.667-3.16zm-2.98.8c2.7-2.133 1.313-3.52 1.313-3.52.56 2.2-1.973 2.867-2.887 4.24-.627.933.307 1.94 1.553 3.093-.473-1.133-2.147-2.107.02-3.813zm-1.773 6.793c-2.053.573 1.253 1.753 3.86.64a4.98 4.98 0 0 1-.733-.36 7.69 7.69 0 0 1-2.76.12c-.873-.107-.367-.4-.367-.4zm3.547-1.12c-1.167.253-2.373.313-3.56.173-.873-.087-.3-.513-.3-.513-2.267.753 1.253 1.6 4.4.68-.193-.073-.38-.2-.54-.34zm2.28 2.2s.38.313-.407.553c-1.52.453-6.287.593-7.607.02-.473-.207.42-.493.7-.553.153-.04.307-.053.46-.053-.527-.36-3.42.733-1.46 1.04 5.313.867 9.693-.4 8.313-1.007zm-1.827-3.24c.193-.127.4-.233.613-.327l-2.013.267a18.4 18.4 0 0 1-3.207.04c-1.567-.207.86-.8.86-.8a4.71 4.71 0 0 0-2.107.5c-1.367.667 3.4.967 5.853.32zm.6 1.613a.17.17 0 0 1-.053.067c3.34-.873 2.113-3.093.513-2.54a.47.47 0 0 0-.207.167 2.02 2.02 0 0 1 .287-.08c.8-.16 1.947 1.087-.54 2.387zm.087 3.073a19.78 19.78 0 0 1-6.08.093s.307.253 1.873.353c2.4.153 6.087-.087 6.173-1.22.02.007-.153.433-1.967.773z" fill="#c5c5c5"/></svg>
